icons/linear-ele-food-ice-cream-round.svg

<svg xmlns="http://www.w3.org/2000/svg" width="32px" height="32px" viewBox="0 0 32 32" version="1.1">
    <title>linear-ele-food-ice-cream-round</title>
    <g id="linear-ele-food-ice-cream-round" stroke-width="1" fill-rule="evenodd">
        <path d="M26.2530483,5.74264069 C29.3772427,8.86683502 29.3772427,13.9321549 26.2530483,17.0563492 L19.8890873,23.4203102 C18.7175144,24.5918831 16.8180195,24.5918831 15.6464466,23.4203102 L14.232272,22.0054949 L9.98959236,26.2487373 C8.81801948,27.4203102 6.91852455,27.4203102 5.74695167,26.2487373 C4.5753788,25.0771645 4.5753788,23.1776695 5.74695167,22.0060967 L9.98927202,17.7624949 L8.5753788,16.3492424 C7.40380592,15.1776695 7.40380592,13.2781746 8.5753788,12.1066017 L14.9393398,5.74264069 C18.0635342,2.61844635 23.128854,2.61844635 26.2530483,5.74264069 Z M11.403272,19.1764949 L7.16116524,23.4203102 C6.77064094,23.8108345 6.77064094,24.4439995 7.16116524,24.8345238 C7.55168953,25.2250481 8.18485451,25.2250481 8.5753788,24.8345238 L12.818272,20.5914949 L11.403272,19.1764949 Z M16.3535534,7.15685425 L9.98959236,13.5208153 C9.59906807,13.9113396 9.59906807,14.5445046 9.98959236,14.9350288 L17.0606602,22.0060967 C17.4511845,22.3966209 18.0843494,22.3966209 18.4748737,22.0060967 L24.8388348,15.6421356 C27.1819805,13.2989899 27.1819805,9.5 24.8388348,7.15685425 C22.495689,4.8137085 18.6966991,4.8137085 16.3535534,7.15685425 Z M23.4246212,11.3994949 C23.8151455,11.7900192 23.8151455,12.4231842 23.4246212,12.8137085 L17.767767,18.4705627 C17.3772427,18.861087 16.7440777,18.861087 16.3535534,18.4705627 C15.9630291,18.0800385 15.9630291,17.4468735 16.3535534,17.0563492 L22.0104076,11.3994949 C22.4009319,11.0089706 23.0340969,11.0089706 23.4246212,11.3994949 Z M20.5961941,8.57106781 C20.9867184,8.9615921 20.9867184,9.59475708 20.5961941,9.98528137 L14.9393398,15.6421356 C14.5488155,16.0326599 13.9156506,16.0326599 13.5251263,15.6421356 C13.134602,15.2516113 13.134602,14.6184464 13.5251263,14.2279221 L19.1819805,8.57106781 C19.5725048,8.18054352 20.2056698,8.18054352 20.5961941,8.57106781 Z" id="&#24418;&#29366;" fill-rule="nonzero" />
    </g>
</svg>

<svg xmlns="http://www.w3.org/2000/svg" viewBox="0 0 32 32"><path fill="currentColor" d="M26.253 5.743a8 8 0 0 1 0 11.313l-6.364 6.364a3 3 0 0 1-4.243 0l-1.414-1.415L9.99 26.25a3 3 0 1 1-4.243-4.243l4.242-4.244-1.414-1.413a3 3 0 0 1 0-4.242l6.364-6.364a8 8 0 0 1 11.314 0m-14.85 13.433L7.161 23.42a1 1 0 0 0 1.414 1.415l4.243-4.244zm4.95-12.02L9.99 13.522a1 1 0 0 0 0 1.414l7.07 7.071a1 1 0 0 0 1.415 0l6.364-6.364a6 6 0 0 0-8.485-8.485m7.072 4.243a1 1 0 0 1 0 1.415l-5.657 5.657a1 1 0 0 1-1.414-1.415L22.01 11.4a1 1 0 0 1 1.415 0m-2.829-2.828a1 1 0 0 1 0 1.414l-5.657 5.657a1 1 0 1 1-1.414-1.414l5.657-5.657a1 1 0 0 1 1.414 0"/></svg>
